apps/scalable/love-app.svg

<svg enable-background="new" height="48" viewBox="0 0 48 48.000001" width="48" xmlns="http://www.w3.org/2000/svg" xmlns:xlink="http://www.w3.org/1999/xlink"><linearGradient id="a" gradientUnits="userSpaceOnUse" x1="125.10662" x2="126.50414" y1="41.938843" y2="-16.989727"><stop offset="0" stop-color="#5fbcd3"/><stop offset="1" stop-color="#87cdde"/></linearGradient><linearGradient id="b" gradientUnits="userSpaceOnUse" x1="24.639602834163" x2="25.666391845032" y1="1049.69740025258" y2="1006.401269891469"><stop offset="0" stop-color="#ececec"/><stop offset="1" stop-color="#ececec"/></linearGradient><linearGradient id="c" gradientUnits="userSpaceOnUse" x1="24.141185473708" x2="24.106735339206" y1="1037.527849068889" y2="1018.770668441493"><stop offset="0" stop-color="#ff4085"/><stop offset="1" stop-color="#ff40a3"/></linearGradient><g transform="translate(0 -1004.3622)"><path d="m124.23602-17.099379c-16.568 0-29.999996 13.4320003-29.999996 30 0 16.568 13.431996 30 29.999996 30s30-13.432 30-30c0-16.5679997-13.432-30-30-30" fill="url(#a)" transform="matrix(.76666667 0 0 .76666667 -71.247619 1018.4717)"/><path d="m29.466797 14.177734c-2.162545.096-4.322046 1.394838-5.291016 3.148438l-1.080078-1.080078c-2.544808-2.5449-7.61232-2.908631-9.611328 1.667968-1.23726 3.886001 1.123028 7.573819 3.929687 10.449219l16.427735 16.427735c6.369315-3.020791 11.127373-8.882069 12.642578-15.947266l-13.267578-13.267578c-1.052348-1.0523-2.400233-1.458438-3.75-1.398438z" fill-opacity=".078431" transform="translate(0 1004.3622)"/><path d="m13.452377 1022.2836c2.300294-5.2663 8.665203-3.991 10.571927-.3783 1.745425-3.5882 8.507941-5.4462 10.572561.372 2.500023 7.728-5.90604 11.9558-10.585671 17.0849-4.581665-4.9366-13.060114-9.2225-10.558817-17.0786z" fill="url(#c)"/><path d="m24 1005.3622c-12.690835 0-23 10.3091-23 23 0 12.6908 10.30916 23 23 23 12.690839 0 23-10.3092 23-23 0-12.6909-10.309165-23-23-23zm0 1.9167c11.654921 0 21.083333 9.4283 21.083333 21.0833 0 11.6549-9.428416 21.0833-21.083333 21.0833s-21.0833329-9.4284-21.0833329-21.0833c0-11.655 9.4284109-21.0833 21.0833329-21.0833z" fill="url(#b)"/></g></svg>

<?xml version="1.0" encoding="UTF-8" standalone="no"?>
<!-- Created with Inkscape (http://www.inkscape.org/) -->

<svg
   xmlns:dc="http://purl.org/dc/elements/1.1/"
   xmlns:cc="http://creativecommons.org/ns#"
   xmlns:rdf="http://www.w3.org/1999/02/22-rdf-syntax-ns#"
   xmlns:svg="http://www.w3.org/2000/svg"
   xmlns="http://www.w3.org/2000/svg"
   xmlns:xlink="http://www.w3.org/1999/xlink"
   xmlns:sodipodi="http://sodipodi.sourceforge.net/DTD/sodipodi-0.dtd"
   xmlns:inkscape="http://www.inkscape.org/namespaces/inkscape"
   width="48"
   height="48"
   viewBox="0 0 48 48.000001"
   id="svg2"
   version="1.1"
   inkscape:version="0.91 r13725"
   sodipodi:docname="love-app.svg"
   enable-background="new">
  <sodipodi:namedview
     id="base"
     pagecolor="#dcdcdc"
     bordercolor="#666666"
     borderopacity="1.0"
     inkscape:pageopacity="0"
     inkscape:pageshadow="2"
     inkscape:zoom="7.919596"
     inkscape:cx="34.744147"
     inkscape:cy="11.863573"
     inkscape:document-units="px"
     inkscape:current-layer="layer1"
     showgrid="false"
     units="px" />
  <defs
     id="defs4">
    <linearGradient
       inkscape:collect="always"
       id="linearGradient146110">
      <stop
         style="stop-color:#ececec;stop-opacity:1"
         offset="0"
         id="stop146112" />
      <stop
         style="stop-color:#ececec;stop-opacity:1"
         offset="1"
         id="stop146114" />
    </linearGradient>
    <linearGradient
       id="linearGradient145362"
       inkscape:collect="always">
      <stop
         id="stop145364"
         offset="0"
         style="stop-color:#ff4085;stop-opacity:1;" />
      <stop
         id="stop145366"
         offset="1"
         style="stop-color:#ff40a3;stop-opacity:1" />
    </linearGradient>
    <linearGradient
       id="linearGradient145033"
       inkscape:collect="always">
      <stop
         id="stop145035"
         offset="0"
         style="stop-color:#5fbcd3;stop-opacity:1" />
      <stop
         id="stop145037"
         offset="1"
         style="stop-color:#87cdde;stop-opacity:1" />
    </linearGradient>
    <symbol
       id="emoji-1f49f"
       viewBox="0 0 64 64">
      <title
         id="title56961">1f49f</title>
      <path
         id="path56963"
         d="m32 2c-16.568 0-30 13.432-30 30s13.432 30 30 30 30-13.432 30-30-13.432-30-30-30m0 48c-1.372-1.813-20.53-12.883-16.602-25.22 3.53-11.07 15.09-6.597 16.602-.594 1.094-5.635 12.949-10.694 16.603.584 3.926 12.136-15.236 23.786-16.603 25.23"
         fill="#ff4085" />
    </symbol>
    <linearGradient
       gradientUnits="userSpaceOnUse"
       y2="-16.989727"
       x2="126.50414"
       y1="41.938843"
       x1="125.10662"
       id="linearGradient145039"
       xlink:href="#linearGradient145033"
       inkscape:collect="always" />
    <linearGradient
       gradientTransform="matrix(0.73472223,0,0,0.73472223,-67.279012,1018.884)"
       y2="-16.989727"
       x2="126.50414"
       y1="41.938843"
       x1="125.10662"
       gradientUnits="userSpaceOnUse"
       id="linearGradient146075"
       xlink:href="#linearGradient146110"
       inkscape:collect="always" />
    <linearGradient
       gradientTransform="matrix(0.63678622,0,0,0.63678622,-40.552149,983.6628)"
       y2="55.132896"
       x2="101.53939"
       y1="84.588905"
       x1="101.59349"
       gradientUnits="userSpaceOnUse"
       id="linearGradient146143"
       xlink:href="#linearGradient145362"
       inkscape:collect="always" />
  </defs>
  <metadata
     id="metadata7">
    <rdf:RDF>
      <cc:Work
         rdf:about="">
        <dc:format>image/svg+xml</dc:format>
        <dc:type
           rdf:resource="http://purl.org/dc/dcmitype/StillImage" />
        <dc:title />
      </cc:Work>
    </rdf:RDF>
  </metadata>
  <g
     style=""
     transform="translate(0,-1004.3622)"
     id="layer1"
     inkscape:groupmode="layer"
     inkscape:label="Layer 1">
    <g
       id="g3223">
      <g
         id="use114375"
         style="fill:#000000;fill-opacity:1"
         transform="matrix(0.76666667,0,0,0.76666667,-71.247619,1018.4717)">
        <title
           id="title145019">1f49f</title>
        <path
           id="path145021"
           d="m 124.23602,-17.099379 c -16.568,0 -29.999996,13.4320003 -29.999996,30 0,16.568 13.431996,30 29.999996,30 16.568,0 30,-13.432 30,-30 0,-16.5679997 -13.432,-30 -30,-30"
           inkscape:connector-curvature="0"
           style="fill:url(#linearGradient145039);fill-opacity:1"
           sodipodi:nodetypes="csssc" />
      </g>
      <path
         id="path146177"
         transform="translate(0,1004.3622)"
         d="M 29.466797 14.177734 C 27.304252 14.273734 25.144751 15.572572 24.175781 17.326172 L 23.095703 16.246094 C 20.550895 13.701194 15.483383 13.337463 13.484375 17.914062 C 12.247115 21.800063 14.607403 25.487881 17.414062 28.363281 L 33.841797 44.791016 C 40.211112 41.770225 44.96917 35.908947 46.484375 28.84375 L 33.216797 15.576172 C 32.164449 14.523872 30.816564 14.117734 29.466797 14.177734 z "
         clip-path="none"
         style="fill:#000000;fill-opacity:0.07843137" />
      <path
         style="fill:url(#linearGradient146143);fill-opacity:1"
         inkscape:connector-curvature="0"
         d="m 13.452377,1022.2836 c 2.300294,-5.2663 8.665203,-3.991 10.571927,-0.3783 1.745425,-3.5882 8.507941,-5.4462 10.572561,0.372 2.500023,7.728 -5.90604,11.9558 -10.585671,17.0849 -4.581665,-4.9366 -13.060114,-9.2225 -10.558817,-17.0786 z"
         id="path145027"
         sodipodi:nodetypes="ccccc" />
      <path
         style="color:#000000;font-style:normal;font-variant:normal;font-weight:normal;font-stretch:normal;font-size:medium;line-height:normal;font-family:sans-serif;text-indent:0;text-align:start;text-decoration:none;text-decoration-line:none;text-decoration-style:solid;text-decoration-color:#000000;letter-spacing:normal;word-spacing:normal;text-transform:none;direction:ltr;block-progression:tb;writing-mode:lr-tb;baseline-shift:baseline;text-anchor:start;white-space:normal;clip-rule:nonzero;display:inline;overflow:visible;visibility:visible;opacity:1;isolation:auto;mix-blend-mode:normal;color-interpolation:sRGB;color-interpolation-filters:linearRGB;solid-color:#000000;solid-opacity:1;fill:url(#linearGradient146075);fill-opacity:1;fill-rule:nonzero;stroke:none;stroke-width:2;stroke-linecap:butt;stroke-linejoin:miter;stroke-miterlimit:4;stroke-dasharray:none;stroke-dashoffset:0;stroke-opacity:1;color-rendering:auto;image-rendering:auto;shape-rendering:auto;text-rendering:auto;enable-background:accumulate"
         d="m 24,1005.3622 c -12.690835,0 -23,10.3091 -23,23 0,12.6908 10.30916,23 23,23 12.690839,0 23,-10.3092 23,-23 0,-12.6909 -10.309165,-23 -23,-23 z m 0,1.9167 c 11.654921,0 21.083333,9.4283 21.083333,21.0833 0,11.6549 -9.428416,21.0833 -21.083333,21.0833 -11.654917,0 -21.0833329,-9.4284 -21.0833329,-21.0833 0,-11.655 9.4284109,-21.0833 21.0833329,-21.0833 z"
         id="path146073"
         inkscape:connector-curvature="0" />
    </g>
  </g>
</svg>
